X: 0
T:H-moll Valsen
S: Ante Falk
R:Vals
Z:Johan Ronström 2011-01-12
O:Offerdal, Jämtland
M:3/4
L:1/8
K:Am fgp=1
|:E2 AA A2|AB cB AG|F2 D2 DC|D4 BA|
G2 E2 E2|E2 DE cB|A2 GA cB|A4 E2:|
|:e^f ed cB|A2 EA c2|B2 GE GB|AG AB cd|
e^f ed cB|A2 EA c2|B2 GE GB|A4 EA:|
|:^c3c c2|^c3A ce|e2d2d2|d3c BA|
B3B B2|B2 GE GB|A2 GA cB|A4 EA:|
